packages/mui-icons-material/material-icons/payments_outlined_24px.svg

<svg xmlns="http://www.w3.org/2000/svg" enable-background="new 0 0 24 24" height="24" viewBox="0 0 24 24" width="24"><g><rect fill="none" height="24" width="24"/><path d="M19 14V6c0-1.1-.9-2-2-2H3c-1.1 0-2 .9-2 2v8c0 1.1.9 2 2 2h14c1.1 0 2-.9 2-2zm-2 0H3V6h14v8zm-7-7c-1.66 0-3 1.34-3 3s1.34 3 3 3 3-1.34 3-3-1.34-3-3-3zm13 0v11c0 1.1-.9 2-2 2H4v-2h17V7h2z"/></g></svg>

<svg xmlns="http://www.w3.org/2000/svg" enable-background="new 0 0 24 24" height="24" viewBox="0 0 24 24" width="24"><g><rect fill="none" height="24" width="24"/><path d="M19,14V6c0-1.1-0.9-2-2-2H3C1.9,4,1,4.9,1,6v8c0,1.1,0.9,2,2,2h14C18.1,16,19,15.1,19,14z M17,14H3V6h14V14z M10,7 c-1.66,0-3,1.34-3,3s1.34,3,3,3s3-1.34,3-3S11.66,7,10,7z M23,7v11c0,1.1-0.9,2-2,2H4c0-1,0-0.9,0-2h17V7C22.1,7,22,7,23,7z"/></g></svg>
